pointercrate-demonlist-pages/static/images/flags/cl/at.svg

<?xml version="1.0" encoding="UTF-8" standalone="no"?>
<!-- Created with Inkscape (http://www.inkscape.org/) -->
<svg
   xmlns:svg="http://www.w3.org/2000/svg"
   xmlns="http://www.w3.org/2000/svg"
   version="1.0"
   width="744.09448"
   height="496.06299"
   id="svg548">
  <defs
     id="defs550" />
  <rect
     width="744.09448"
     height="496.06302"
     x="-0.0017277366"
     y="0.005354112"
     style="font-size:12px;fill:#0035ad;fill-opacity:1;fill-rule:evenodd;stroke-width:1pt"
     id="rect551" />
  <path
     d="M 472.54307,408.29908 L 371.87296,332.64074 L 270.98801,407.9931 L 309.53907,285.71537 L 208.98579,209.89147 L 333.48177,209.97805 L 372.22134,87.76391 L 410.61303,210.09512 L 535.1087,210.38655 L 434.34013,285.90487 L 472.54307,408.29908 z "
     style="font-size:12px;opacity:1;fill:#ffd700;fill-opacity:1;fill-rule:evenodd;stroke-width:1pt"
     id="polygon555" />
  <path
     d="M 0,438.03156 L 0,-0.000145 L 0,-0.000145 L 658.5319,-0.000145"
     style="font-size:12px;opacity:0.37912083;fill:none;fill-opacity:1;fill-rule:evenodd;stroke-width:1pt"
     id="path2078" />
  <path
     d="M 658.5319,-0.000145 L 744.09448,-0.000145 L 744.09448,496.06287 L 0,496.06287 L 0,438.03156"
     style="font-size:12px;opacity:0.37912083;fill:none;fill-opacity:1;fill-rule:evenodd;stroke-width:1pt"
     id="rect2060" />
</svg>

<?xml version="1.0" encoding="UTF-8"?>
<!-- Created with Inkscape (http://www.inkscape.org/) -->
<svg id="svg548" width="744.09" height="496.06" version="1.0" xmlns="http://www.w3.org/2000/svg">
 <rect id="rect551" x="-.0017277" y=".0053541" width="744.09" height="496.06" fill="#0035ad" fill-rule="evenodd" stroke-width="1pt"/>
 <path id="polygon555" d="m472.54 408.3-100.67-75.658-100.88 75.352 38.551-122.28-100.55-75.824 124.5 0.08658 38.74-122.21 38.392 122.33 124.5 0.29143-100.77 75.518 38.203 122.39z" fill="#ffd700" fill-rule="evenodd" stroke-width="1pt"/>
 <path id="path2078" d="m0 438.03v-438.03h658.53" fill="none" opacity=".37912" stroke-width="1pt"/>
 <path id="rect2060" d="m658.53-1.45e-4h85.563v496.06h-744.09v-58.031" fill="none" opacity=".37912" stroke-width="1pt"/>
</svg>
